brandFactory_export/3.Masa/Bombilla idea_3Masa.svg

<?xml version="1.0" encoding="UTF-8"?>
<svg width="24px" height="24px" viewBox="0 0 24 24" version="1.1" xmlns="http://www.w3.org/2000/svg" xmlns:xlink="http://www.w3.org/1999/xlink">
    <title>3.Masa/Bombilla idea_3Masa</title>
    <g id="Symbols" stroke="none" stroke-width="1" fill="none" fill-rule="evenodd">
        <g id="3.Masa/Bombilla-idea_3Masa" fill="#5CB615" fill-rule="nonzero">
            <path d="M16.0605042,20.1042017 C16.4739496,20.1042017 16.810084,20.4369748 16.810084,20.8436975 C16.810084,21.2504202 16.4739496,21.5831933 16.0605042,21.5831933 L9.71092437,21.5831933 C9.29747899,21.5831933 8.96134454,21.2504202 8.96134454,20.8436975 C8.96134454,20.4369748 9.29747899,20.1042017 9.71092437,20.1042017 L16.0605042,20.1042017 L16.0605042,20.1042017 Z M15.2033613,22.1445378 C15.6168067,22.1445378 15.9529412,22.4773109 15.9529412,22.8840336 C15.9529412,23.2907563 15.6168067,23.6235294 15.2033613,23.6235294 L10.3731092,23.6235294 C9.95966387,23.6235294 9.62352941,23.2907563 9.62352941,22.8840336 C9.62352941,22.4773109 9.95966387,22.1445378 10.3731092,22.1445378 L15.2033613,22.1445378 Z M12.7428571,3.2 C12.3294118,3.2 11.9932773,2.86722689 11.9932773,2.4605042 L11.9932773,0.739495798 C11.9932773,0.332773109 12.3294118,0 12.7428571,0 C13.1563025,0 13.492437,0.332773109 13.492437,0.739495798 L13.492437,2.4605042 C13.4890756,2.86722689 13.1529412,3.2 12.7428571,3.2 Z M18.8672269,5.17983193 C18.6756303,5.17983193 18.4840336,5.1092437 18.3394958,4.96470588 C18.0470588,4.67563025 18.0470588,4.20840336 18.3394958,3.91932773 L19.5731092,2.70252101 C19.8655462,2.41344538 20.3394958,2.41344538 20.6319328,2.70252101 C20.9243697,2.99159664 20.9243697,3.45882353 20.6319328,3.74789916 L19.3983193,4.96470588 C19.2504202,5.1092437 19.0588235,5.17983193 18.8672269,5.17983193 Z M7.05210084,5.17647059 C6.90756303,5.3210084 6.71260504,5.39159664 6.52436975,5.39159664 C6.33277311,5.39159664 6.14117647,5.31764706 5.99327731,5.17647059 L4.75966387,3.95966387 C4.46722689,3.67058824 4.46722689,3.20336134 4.75966387,2.91428571 C5.05210084,2.62521008 5.52605042,2.62521008 5.81848739,2.91428571 L7.05210084,4.13109244 C7.34453782,4.42016807 7.34453782,4.88739496 7.05210084,5.17647059 Z M4.50084034,9.54285714 C4.91428571,9.54285714 5.25042017,9.87563025 5.25042017,10.2823529 C5.25042017,10.6890756 4.91428571,11.0218487 4.50084034,11.0218487 L2.75630252,11.0218487 C2.34285714,11.0218487 2.00672269,10.6890756 2.00672269,10.2823529 C2.00672269,9.87563025 2.34285714,9.54285714 2.75630252,9.54285714 L4.50084034,9.54285714 L4.50084034,9.54285714 Z M22.9176471,9.45546218 C23.3310924,9.45546218 23.6672269,9.78823529 23.6672269,10.194958 C23.6672269,10.6016807 23.3310924,10.9344538 22.9176471,10.9344538 L21.1764706,10.9344538 C20.7630252,10.9344538 20.4268908,10.6016807 20.4268908,10.194958 C20.4268908,9.78823529 20.7630252,9.45546218 21.1764706,9.45546218 L22.9176471,9.45546218 Z M16.6285714,11.697479 C17.0420168,11.6773109 17.3579832,11.3310924 17.3378151,10.9210084 C17.1563025,7.48235294 14.6319328,6.20504202 12.3428571,6.15462185 C12.2016807,6.14789916 12.0369748,6.14789916 11.8890756,6.14789916 C11.4756303,6.14789916 11.1394958,6.48067227 11.1394958,6.88739496 C11.1394958,7.29411765 11.4756303,7.62689076 11.8890756,7.62689076 C12.0268908,7.63697479 12.1613445,7.62689076 12.2991597,7.63361345 C13.3142857,7.65378151 15.687395,8.02689076 15.8420168,10.9983193 C15.8621849,11.3915966 16.1915966,11.697479 16.5882353,11.697479 C16.605042,11.7008403 16.6151261,11.7008403 16.6285714,11.697479 L16.6285714,11.697479 Z M13.0756303,3.91260504 C14.4,3.94285714 19.5731092,4.46386555 19.5731092,10.6252101 C19.5731092,13.7243697 18.2689076,15.3915966 16.8067227,16.2857143 L16.8168067,17.6302521 C16.8168067,18.2453782 16.6420168,18.7226891 16.2857143,19.0386555 C15.9462185,19.3478992 15.4252101,19.502521 13.989916,19.502521 L11.5932773,19.502521 C10.1915966,19.502521 9.66722689,19.3445378 9.32436975,19.0386555 C8.96134454,18.7226891 8.77983193,18.2453782 8.77983193,17.6302521 L8.7697479,16.2957983 C7.30756303,15.4084034 6.00336134,13.7277311 6.00336134,10.5915966 C6.00336134,4.37983193 11.0655462,3.91596639 12.4268908,3.9092437 C12.6386555,3.90588235 12.8705882,3.90588235 13.0756303,3.91260504 Z" id="Bombilla-idea_3Masa"></path>
        </g>
    </g>
</svg>

<svg width="24" height="24" viewBox="0 0 24 24" xmlns="http://www.w3.org/2000/svg"><path d="M16.06 20.104c.414 0 .75.333.75.74 0 .406-.336.74-.75.74H9.71a.746.746 0 01-.749-.74c0-.407.336-.74.75-.74h6.35zm-.857 2.04c.414 0 .75.333.75.74s-.336.74-.75.74h-4.83a.746.746 0 01-.75-.74c0-.407.337-.74.75-.74h4.83zM12.743 3.2a.746.746 0 01-.75-.74V.74c0-.407.336-.74.75-.74.413 0 .75.333.75.74v1.72a.75.75 0 01-.75.74zm6.124 1.98a.742.742 0 01-.528-.215.732.732 0 010-1.046l1.234-1.216a.755.755 0 011.059 0 .732.732 0 010 1.045l-1.234 1.217a.756.756 0 01-.53.215zM7.052 5.176a.748.748 0 01-.528.216.77.77 0 01-.53-.216L4.76 3.96a.732.732 0 010-1.046.755.755 0 011.058 0l1.234 1.217a.732.732 0 010 1.045zM4.501 9.543c.413 0 .75.333.75.74 0 .406-.337.739-.75.739H2.756a.746.746 0 01-.75-.74c0-.406.337-.74.75-.74h1.745zm18.417-.088c.413 0 .75.333.75.74s-.337.74-.75.74h-1.742a.746.746 0 01-.75-.74c0-.407.337-.74.75-.74h1.742zm-6.29 2.242a.742.742 0 00.71-.776c-.182-3.439-2.706-4.716-4.995-4.766-.141-.007-.306-.007-.454-.007a.746.746 0 00-.75.74c0 .406.337.739.75.739.138.01.272 0 .41.007 1.015.02 3.388.393 3.543 3.364.02.394.35.7.746.7a.082.082 0 00.04 0zm-3.552-7.784c1.324.03 6.497.55 6.497 6.712 0 3.1-1.304 4.767-2.766 5.66l.01 1.345c0 .615-.175 1.093-.531 1.409-.34.309-.86.464-2.296.464h-2.397c-1.401 0-1.926-.158-2.269-.464-.363-.316-.544-.794-.544-1.409l-.01-1.334c-1.462-.888-2.767-2.568-2.767-5.704 0-6.212 5.063-6.676 6.424-6.683.212-.003.444-.003.649.004z" fill="#5CB615" fill-rule="nonzero"/></svg>
